!!!!SEGMENT: pl-sa--381--a-viii-21--004_anonim--przyjmij-bolze-te-ofiare.krn
!!!cenid: 18xx:1310
!!!COM: Anonim
!!!COM-rismid: pe30004985
!!!CDT:
!!!CNT:
!!!OTL: Przyjmij Boże tę ofiarę
!!!PDT:
!!!AGN: Sacred
!!!SMS-siglum: PL-SA
!!!SMS-shelfmark: 381/ A VIII 21
!!!SMS-shelfwork: 002 W
!!!SMS-variant:
!!!SMS-altvar:
!!!NIFC-rismid: 1001106434
!!!URL-scan: http://bc.bdsandomierz.pl/dlibra/publication/1685/edition/1653/content
!!!ONB-nifc: UWAGA: str. 5. Utwory w zbiorze: 1. Kyrie, 2. Gloria, 3. Credo, 4. Przyjmij Boże tę ofiarę, 5. Sanctus, 6. Aniele stróżu duszy, 7. Agnus Dei, 8. Dona nobis, 9. Boże cesarza chroń, 10. Ciebie Boże wychwalamy, 11. Chwałę Panu wdzięcznym pieniem
!!!OMD: Dolce
!!!key: G
**kern	**text	**kern	**text	**dynam
*part2	*part2	*part1	*part1	*part1
*staff2	*staff2	*staff1	*staff1	*
*ICvox	*	*ICvox	*	*
*Ivox	*	*Ivox	*	*
*I"	*	*I"	*	*
*clefF4	*	*clefG2	*	*
*k[f#]	*	*k[f#]	*	*
*G:	*	*G:	*	*
*M3/4	*	*M3/4	*	*
=1	=1	=1	=1	=1
!	!	!LO:TX:t=P:problem:przy kluczu f#	!	!
2G\	Kę-	2b/	Przyj-	.
4G\	-dy	4a/	-mij	.
=2	=2	=2	=2	=2
2G\	Two-	4g/	Bo-	.
.	.	4e/	.	.
4F#\	-je	4a/	-że	.
=3	=3	=3	=3	=3
4G\	słoń-	2bS/	tę	.
4E\	.	.	.	.
4C/	-ce	8dd/L	o-	.
.	.	8cc/J	.	.
=4	=4	=4	=4	=4
4D/	świe-	4b/	-fia-	.
4D/	-ci	4a/	-rę	.
4r	.	4r	.	.
=5	=5	=5	=5	=5
2B\	Tam	2dd/	któ-	.
4B\	gdzie	4g/	-rą	.
=6	=6	=6	=6	=6
4B\	ludz-	(<8.b/L	za	.
.	.	16a/Jk)	.	.
2B\	-kie	2g/	nas	.
!!LO:LB:g=original
=7	=7	=7	=7	=7
2A\	ser-	2cc/	ka-	.
4G\	-ca	4b/	-płan	.
=8	=8	=8	=8	=8
!LO:SIC:v:s=4d\	!	!	!	!
4c\	bi-	4b/	swię-	.
8D/	-ją	8a/	-ci	.
8r	.	8r	.	.
4r	.	4r	.	.
=9	=9	=9	=9	=9
!	!	!LO:SIC:v:s=(4a/	!	!
!	!	!LO:TX:a:t=a	!	!
2Cn/	niech	(>4g/	wzma-	.
.	.	8a/L)	.	.
.	.	8b/J	.	.
4C/	cię	8a/L	-cniaj	.
.	.	8g/J	.	.
=10	=10	=10	=10	=10
2D/	zna-	2f#/	wie-	.
4D/	-ją	4g/	-cznie	.
=11	=11	=11	=11	=11
!	!	!	!	!LO:HP:a
(>4F#\	Two-	(>4a/	na-	<
4G\)	.	4b/)	.	[
!	!	!	!	!LO:HP:a
4E\	-je	4cc#X/	-szą	>
=12	=12	=12	=12	=12
2D/	dzie-	8.dd/L	wia-	.
.	.	16a/Jk	.	]
.	.	4a/	-rę	.
4C/	-ci	4r	.	.
!!LO:LB:g=original
=13	=13	=13	=13	=13
2B\	niech	2dd/	wspie-	.
!	!	!	!	!LO:HP:a
.	.	.	.	<
4B\	jak	4dd#X/	-raj	[
=14	=14	=14	=14	=14
!	!	!	!	!LO:HP:a
2C/	bra[[cia]]-	(<4ee/	wszy-	>
.	.	8ddn/L	.	]
.	.	8cc/J)	.	.
4C/	-cia	8.b/L	-stkie	.
!	!	!LO:N:vis=8	!	!
.	.	16a/Jk	.	.
=15	=15	=15	=15	=15
2D/	w_zgo-	(>4g/	do-	.
!	!	!LO:SIC:v:s=4b/)	!	!
!	!	!LO:TX:a:t=h	!	!
.	.	4cc/)	.	.
4D/	-dzie	4a/	-bre	.
=16	=16	=16	=16	=16
4G\	ży-	(<8.a/L	chę-	.
.	.	16g/Jk)	.	.
4G\	-ją	4g/	-ci	.
4r	.	4r	.	.
=||	=||	=||	=||	=||
*-	*-	*-	*-	*-
!!!system-decoration: {(*)}
!!!RDF**kern: > = above
!!!RDF**kern: < = below
!!!ENC: Katarzyna Serwa
!!!END: 2020-12-09
!!!ENC: Andrzej Kubiczek
!!!END: 2022-01-07
